apps/frontend/src/assets/img/logo/meetlytic-logo-mobile.svg

<svg width="442" height="75" viewBox="0 0 42 75" fill="none" xmlns="http://www.w3.org/2000/svg">

<path d="M72 51C72 53.1217 71.1571 55.1566 69.6569 56.6569C68.1566 58.1571 66.1217 59 64 59H16L0 75V11C0 8.87827 0.842854 6.84344 2.34315 5.34315C3.84344 3.84285 5.87827 3 8 3H64C66.1217 3 68.1566 3.84285 69.6569 5.34315C71.1571 6.84344 72 8.87827 72 11V51Z" fill="#10ADD8"/>
<path d="M12 41L16.5 24.5L23 49.5L30 15.5L36 43L39 24.5L44 37.5L47 30L52 37.5L58 20" stroke="white" stroke-width="3" stroke-linecap="round" stroke-linejoin="round"/>
<circle cx="59.5" cy="15" r="6" fill="white"/>
</svg>

<svg width="80" height="75" viewBox="20 0 30 75" fill="none" xmlns="http://www.w3.org/2000/svg"><path d="M72 51a8 8 0 0 1 -8 8H16L0 75V11a8 8 0 0 1 8 -8h56a8 8 0 0 1 8 8z" fill="#10ADD8"/><path d="m12 41 4.5 -16.5 6.5 25 7 -34L36 43l3 -18.5 5 13 3 -7.5 5 7.5L58 20" stroke="#fff" stroke-width="3" stroke-linecap="round" stroke-linejoin="round"/><path cx="59.5" cy="15" r="6" fill="#fff" d="M65.5 15A6 6 0 0 1 59.5 21A6 6 0 0 1 53.5 15A6 6 0 0 1 65.5 15z"/></svg>
